src/assets/outline/CloudLightning.svg

<svg width="24" height="24" viewBox="0 0 24 24"  xmlns="http://www.w3.org/2000/svg">
<path d="M16.65 20.75C16.64 20.75 16.62 20.75 16.61 20.75C16.2 20.75 15.86 20.41 15.87 19.99C15.87 19.58 16.22 19.21 16.63 19.25C17.79 19.25 18.89 18.83 19.74 18.05C21.29 16.69 21.4 14.75 20.98 13.38C20.56 12.01 19.39 10.46 17.37 10.2C17.04 10.16 16.78 9.91001 16.72 9.58001C16.33 7.19001 15.03 5.54001 13.09 4.94001C11.07 4.32001 8.73998 4.93001 7.27998 6.46001C5.85998 7.95002 5.52998 10.02 6.34998 12.31C6.48998 12.7 6.28998 13.13 5.89998 13.27C5.50998 13.41 5.07998 13.21 4.93998 12.82C3.92998 10.01 4.38998 7.32001 6.19998 5.43001C8.04998 3.50001 10.99 2.73001 13.54 3.52001C15.87 4.24001 17.52 6.16001 18.11 8.82001C20.15 9.28001 21.78 10.82 22.43 12.95C23.14 15.27 22.5 17.65 20.76 19.17C19.61 20.19 18.16 20.75 16.65 20.75Z" />
<path d="M5.57008 20.7501C5.55008 20.7501 5.53008 20.7501 5.52008 20.7501C2.64008 20.5501 1.33008 18.2901 1.33008 16.2801C1.33008 14.2701 2.64008 12.0201 5.52008 11.8101C6.28008 11.8201 6.99008 11.9701 7.63008 12.2901C8.00008 12.4801 8.14008 12.9301 7.96008 13.3001C7.77008 13.6701 7.32008 13.8101 6.95008 13.6301C6.53008 13.4101 6.05008 13.3101 5.59008 13.3101C3.70008 13.4501 2.84008 14.9001 2.84008 16.2801C2.84008 17.6601 3.70008 19.1101 5.63008 19.2501C6.04008 19.2801 6.35008 19.6401 6.33008 20.0501C6.29008 20.4501 5.96008 20.7501 5.57008 20.7501Z" />
<path d="M15.8201 10.64C15.5401 10.64 15.2801 10.49 15.1501 10.22C14.9601 9.84997 15.1101 9.39997 15.4901 9.20997C16.1001 8.89997 16.7901 8.72997 17.4701 8.71997H17.4801C17.8901 8.71997 18.2201 9.04997 18.2301 9.45997C18.2401 9.86997 17.9101 10.22 17.4901 10.22C17.0301 10.23 16.5701 10.34 16.1501 10.55C16.0401 10.62 15.9301 10.64 15.8201 10.64Z" />
<path d="M10.6098 22.62C10.4798 22.62 10.3398 22.6 10.2098 22.55C9.76976 22.38 9.47976 21.97 9.47976 21.5V19.92H9.22976C8.47976 19.92 8.20976 19.48 8.11976 19.3C8.03976 19.1 7.89976 18.6 8.38976 18.05L10.8398 15.26C11.1498 14.91 11.6398 14.78 12.0798 14.95C12.5198 15.12 12.8098 15.53 12.8098 16V17.58H13.0598C13.7998 17.58 14.0798 18.02 14.1698 18.2C14.2598 18.38 14.3998 18.88 13.9098 19.44L11.4598 22.23C11.2298 22.48 10.9198 22.62 10.6098 22.62ZM10.0598 18.41H10.2298C10.6398 18.41 10.9798 18.75 10.9798 19.16V20.49L12.2198 19.08H12.0498C11.6398 19.08 11.2998 18.74 11.2998 18.33V17L10.0598 18.41Z" />
</svg>

<?xml version="1.0" encoding="UTF-8"?>
<svg width="24" height="24" viewBox="0 0 24 24" xmlns="http://www.w3.org/2000/svg">
 <path d="m16.65 20.75h-0.04c-0.41 0-0.75-0.34-0.74-0.76 0-0.41 0.35-0.78 0.76-0.74 1.16 0 2.26-0.42 3.11-1.2 1.55-1.36 1.66-3.3 1.24-4.67s-1.59-2.92-3.61-3.18c-0.33-0.04-0.59-0.28999-0.65-0.61999-0.39-2.39-1.69-4.04-3.63-4.64-2.02-0.62-4.35-0.01-5.81 1.52-1.42 1.49-1.75 3.56-0.93 5.85 0.14 0.39-0.06 0.82-0.45 0.96s-0.82-0.06-0.96-0.45c-1.01-2.81-0.55-5.5 1.26-7.39 1.85-1.93 4.79-2.7 7.34-1.91 2.33 0.72 3.98 2.64 4.57 5.3 2.04 0.46 3.67 2 4.32 4.13 0.71 2.32 0.07 4.7-1.67 6.22-1.15 1.02-2.6 1.58-4.11 1.58z"/>
 <path d="m5.5701 20.75h-0.05c-2.88-0.2-4.19-2.46-4.19-4.47s1.31-4.26 4.19-4.47c0.76 0.01 1.47 0.16 2.11 0.48 0.37 0.19 0.51 0.64 0.33 1.01-0.19 0.37-0.64 0.51-1.01 0.33-0.42-0.22-0.9-0.32-1.36-0.32-1.89 0.14-2.75 1.59-2.75 2.97s0.86 2.83 2.79 2.97c0.41 0.03 0.72 0.39 0.7 0.8-0.04 0.4-0.37 0.7-0.76 0.7z"/>
 <path d="m15.82 10.64c-0.28 0-0.54-0.15-0.67-0.42-0.19-0.37003-0.04-0.82003 0.34-1.01 0.61-0.31 1.3-0.48 1.98-0.49h0.01c0.41 0 0.74 0.33 0.75 0.74s-0.32 0.76003-0.74 0.76003c-0.46 0.01-0.92 0.12-1.34 0.33-0.11 0.07-0.22 0.09-0.33 0.09z"/>
 <path d="m10.61 22.62c-0.13 0-0.27-0.02-0.4-0.07-0.44004-0.17-0.73004-0.58-0.73004-1.05v-1.58h-0.25c-0.75 0-1.02-0.44-1.11-0.62-0.08-0.2-0.22-0.7 0.27-1.25l2.45-2.79c0.31-0.35 0.8-0.48 1.24-0.31s0.73 0.58 0.73 1.05v1.58h0.25c0.74 0 1.02 0.44 1.11 0.62s0.23 0.68-0.26 1.24l-2.45 2.79c-0.23 0.25-0.54 0.39-0.85 0.39zm-0.55-4.21h0.17c0.41 0 0.75 0.34 0.75 0.75v1.33l1.24-1.41h-0.17c-0.41 0-0.75-0.34-0.75-0.75v-1.33l-1.24 1.41z"/>
</svg>
